X:1
T:Quid spectas
T:Daniele Frederici
T:Source : Bicinia sacra---Bibliopol---J.Richelius---1642. Editor : André Vierendeels (30/06/17).
T:Notes : Original clefs : G2,G2 Original note values have been quartered in 3-beat measures Editorial accidentals above the staff 
T:Quid spectas
T:©
T:©
C:Daniele Frederici
Z:©
%%score [ 1 2 ]
L:1/8
Q:1/4=120
M:2/2
K:F
V:1 treble nm="Soprano 1" snm="S 1"
V:2 treble nm="Soprano 2" snm="S 2"
V:1
 F8 | G8 | A8 | B8 | c8 | d8 | e8 | f8 | e8 | d6 d2 | c4 c4- | c2 =BA B4 | c8 :: F8 | A4 B4 | c8 | %16
w: Quid|spe-|ctas|A-|si-|num,|cae-|le-|stem|su- spi-|ce Re-||gem:|Et|ser- va-|to-|
 c4 d4 | e4 f4 | g8 | c8 | c2 d2 e2 f2 |[M:6/4] g4 e2 f4 g2 | a4 g2 a4 g2 | f2 e2 fg a2 g2 ag | %24
w: ri, et|ser- va|_|to-|ri, dic, _ _|_ dic Ho- si-|an- na, ho- si-|an- na, Ho- si- an- na, Ho- si-|
 f2 e2 fe d2 c2 dc | B2 A2 G2 !fermata!F6 :| %26
w: an- , Ho- si- an- na Ho- si-|an- na tu- o.|
V:2
 z2 f2 c2 A2 | z2 d2 B2 G2 | z2 c2 e2 c2 | z2 d2 f2 d2 | z2 e2 g2 e2 | fedc B2 B2 | A2 A2 c2 A2 | %7
w: Quid spe- ctas,|quid spe- ctas,|quid spe- ctas,|quid spe- ctas|quid spe- ctas|a- * * * * si-|num, cae- le- stem,|
 z2 a2 f2 d2 | g3 g e4 | f6 ed | e6 dc | d8 | c8 :: z8 | z8 | F8 | A4 B4 | c8 | c4 d4 | e4 f4 | %20
w: cae- le- stem|su- spi- ce|Re- * *|||gem:|||Et|Ser- va-|to-|ri, et|Ser- va-|
 g8 |[M:6/4] c4 c2 d4 e2 | f4 e2 f4 g2 | a2 g2 ag f2 e2 fe | f2 e2 dc B2 A2 BA | %25
w: to-|ri, dic Ho- si-|an- na, Ho- si-|an- na, Ho- si- an- na, Ho- si-|an- na, Ho- si- an- na Ho- si-|
 G2 F2 E2 !fermata!F6 :| %26
w: an- na tu- o.|

